X:1
T:Title
%%score { 1 | ( 2 3 ) }
L:1/8
Q:1/4=116
M:4/4
K:F
V:1 treble nm="Grand Piano"
V:2 bass 
V:3 bass 
V:1
 C2 F2 A2 F2 | G4 F4 | [EG]2 [FA]2 [GB]2 [EG]2 | A3 B c4 | d2 d2 c2 A2 | c2 c2 B2 [CEG]2 | %6
w: J.~H.~Rosecrans * * *||||||
 [CFA]2 [A,CF]2 [CE]2[K:bass] [F,B,D]2 |[M:3/4] [E,C]6 |[M:1/4][K:treble] [CGB]2 | %9
w: |||
[M:4/4] [CFA]2 [Fc]4 [CFA]2 | [DFB]2 [Fd]4 [Fd]2 | c2 A2 c2 A2 | [EG]6 [GB]2 | A2 c4 A2 | %14
w: |||||
 [DFB]2 [Fd]4 [Fd]2 | [Fc]2 [FA]2 [EA]2 [EG]2 | F6 z2 |] %17
w: |||
V:2
 [F,A,]2 [F,A,C]2 [F,CF]2 [F,A,C]2 | [C,B,C]4 [F,A,C]4 | [C,C]2 [C,C]2 [C,C]2 [C,C]2 | [CF]8 | %4
 [B,F]2 [B,F]2 [A,CF]2 [F,CF]2 | [A,CF]2 [A,CF]2[K:bass] [G,CE]2 C,2 | F,2 F,2 G,2 G,,2 | %7
[M:3/4] C,6 |[M:1/4] C,2 |[M:4/4] F,2 [F,A,]4 F,2 | B,,2 [B,,B,]4 [B,,B,]2 | %11
 [F,A,F]2 [F,CF]2 [A,CF]2[K:bass] [F,CF]2 | [C,C]6 [C,C]2 | [F,CF]2 [F,A,F]4 [F,CF]2 | %14
 B,,2 [B,,B,]4 [B,,B,]2 | [C,A,]2 [C,C]2 [C,C]2 [C,B,]2 | [F,A,]6 z2 |] %17
V:3
 x8 | x8 | x8 | F,3 G, A,4 | x8 | x4[K:bass] x4 | x8 |[M:3/4] x6 |[M:1/4] x2 |[M:4/4] x8 | x8 | %11
 x6[K:bass] x2 | x8 | x8 | x8 | x8 | x8 |] %17

